X:1
T:Title
%%score { ( 1 3 ) | 2 }
L:1/8
Q:1/4=100
M:4/4
K:G
V:1 treble nm="Grand Piano"
V:3 treble 
V:2 bass 
V:1
 [EG]2 [EG]2 [EA]>[EG] [CE]2 | [D=F]2 c2 B4 | =F2 F2 G>F [B,D]2 | z2 [^DA]2 z4 | %4
w: B.~D.~Ackley * * * *||||
 [EG]2 [EG]2 [EA]>[EG] E2 | D2 G2 [GB]4 | [FB]2 [FA][GB] [Fc]2 [FA]2 | [B,=Fd]6 z2 | %8
w: ||||
 [Ge]2 [Ge]2 [Ge]>[=Fd] [Ec]2 | [EA]2 [EG]2 [CE] [EG]3 | A2 G2 D G3 | [EA]2 [EG]2 [CE] [EG]3 | %12
w: ||||
 [Ge]2 [Ge]2 [Ge]>[=Fd] [Ec]2 | [EA]2 [EG]2 [CE] [EG]3 | AGFG e2 d2 | [Ec]6 z2 |] %16
w: ||||
V:2
 [C,C]2 [C,C]2 [C,C]>[C,C] [C,G,]2 | [B,,G,]2[K:treble] [G,D=F]2 [G,DF]4 | %2
 [G,B,D]2 [G,B,D]2 [G,B,D]>[K:bass][G,B,D] [G,,G,]2 | [C,G,]2 .[C,F,]2 [C,C]4 | %4
 [C,C]2 [C,C]2 [C,C]>[C,C] [C,G,C]2 | [D,G,B,]2 [D,B,D]2 [D,D]4 | %6
 [D,D]2 [D,C][D,B,] [D,A,]2 [D,C]2 | [G,,G,]6 z2 | [C,C]2 [C,C]2 [C,C]>[C,C] [C,G,]2 | %9
 [C,C]2 [C,C]2 [C,G,] [C,C]3 | [G,B,=F]2 [G,B,F]2 [G,B,] [G,B,F]3 | [C,C]2 [C,C]2 [C,G,] [C,C]3 | %12
 [C,C]2 [C,C]2 [C,C]>[C,C] [C,G,]2 | [C,C]2 [C,C]2 [C,G,] [C,C]3 | %14
 [G,CE][G,CE][A,C^D][G,CE] [G,CG]2 [G,=F]2 | [C,G,]6 z2 |] %16
V:3
 x8 | x8 | x8 | [CE]2 z A, [EG]4 | x8 | x8 | x8 | x8 | x8 | x8 | x8 | x8 | x8 | x8 | x8 | x8 |] %16

